!!!!SEGMENT: pl-wn--sd-xvi-qu-273--141_gomolka-mikolaj--ciebie-ojcze-wzywam-laskawy-ty-moje.krn
!!!cenid: 15xx:346
!!!COM: Gomółka, Mikołaj
!!!COM-rismid: pe30013343
!!!CDT: ~1535->1591/04/30
!!!CNT: Polish
!!!GTL: Melodiae na psalterz polski
!!!OTL: CXLI. Ciebie, Ojcze, wzywam, łaskawy, Ty moje
!!!ONB: PSAL: CXLI. Domine clamavi ad te exaudi me: intende voci mee dum clamavero ad te. Dirigatur oratio mea ſicut incenſum in conſpeƈtu tuo.
!!!PDT: 1580
!!!AGN: Sacred
!!!SMS-siglum: PL-Wn
!!!SMS-shelfmark: SD XVI.Qu.273
!!!SMS-shelfwork: 141 G
!!!NIFC-rismid:
!!!ONB-nifc: Melodiae na psalterz polski
**kern	**text	**kern	**text	**kern	**text	**kern	**text
*part4	*part4	*part3	*part3	*part2	*part2	*part1	*part1
*staff4	*staff4	*staff3	*staff3	*staff2	*staff2	*staff1	*staff1
*clefF3	*	*clefC3	*	*clefC1	*	*clefG2	*
*k[b-B-]	*	*k[b-]	*	*k[b-]	*	*k[b-]	*
*g:	*	*g:	*	*g:	*	*g:	*
*M2/1	*	*M2/1	*	*M2/1	*	*M2/1	*
*met(C|)	*	*met(C|)	*	*met(C|)	*	*met(C|)	*
*I"BASSUS.	*	*I"TENOR.	*	*I"ALTUS.	*	*I"CANTUS.	*
=1-	=1	=1-	=1	=1-	=1	=1-	=1
!LO:TX:t=P:dwa bemole przy kluczu:problem	!	!	!	!	!	!	!
4.G\	CJe-	8G/L	CJe-	2d/	CJe-	2.g/	CJe-
.	.	8A/	-bie	.	.	.	.
.	.	8B-/	oy-	.	.	.	.
8A\	-bie	8c/J	-cʒe	.	.	.	.
4B-\	oy-	4d\	wʒy-	4d/	-bie	.	.
4A\	-cʒe	4c\	-wam	8e/L	oy-	4a/	-bie
.	.	.	.	8f/J	-cʒe	.	.
4G\	wʒy-	2.B-/	łá-	4g/	wʒy-	4b-/	oy-
2G\	-wam	.	.	4d/	.	4g/	-cʒe
.	.	.	.	2g/	-wam	4b-/	wʒy-
8F/L	łá-	4G/	.	.	.	4cc\	-wam
8E/J	.	.	.	.	.	.	.
=2-	=2	=2-	=2	=2-	=2	=2-	=2
4D/	-ſká-	2A/	-ſká-	4.f/	łá-	4.dd\	łá-
4D/	-wy,	.	.	.	.	.	.
.	.	.	.	8g/	-ſká-	8cc\L	-ſká-
2d\	.	2f\	-wy,	2a\	-wy,	8dd\	-wy,
.	.	.	.	.	.	8ee\J	.
.	.	.	.	.	.	4ff\	ty
4G\	ty	4.g\	ty	2b-\	ty	4ee\	mo-
4G\	mo-	.	.	.	.	2dd\	-ie
.	.	8f\L	.	.	.	.	.
2A\	-ie	8e\	mo-	4.a\	mo-	.	.
.	.	8d\J	.	.	.	.	.
.	.	4e\	-ie	.	.	4cc\	Rácʒ
.	.	.	.	8g/	-ie	.	.
=3-	=3	=3-	=3	=3-	=3	=3-	=3
4D/	Rácʒ	4d\	Rácʒ	4f#X/	Rácʒ	4dd\	.
4D/	u-	4d\	u-	4a\	.	4ff\	u-
4BB-/	-prʒey-	4f\	-prʒey-	4b-\	u-	4ff\	-prʒey-
4B-\	-mé	4d\	-mé	4dd\	-prʒey-	4ff\	-mé
2c\	pro-	2g\	pro-	4.cc\	-mé	2ee-X\	pro-
.	.	.	.	8b-\	.	.	.
4d\	.	4f\	.	2a\	pro-	2dd\	.
4D/	.	4d\	.	.	.	.	.
=4-	=4	=4-	=4	=4-	=4	=4-	=4
!!LO:PB:g=original
2F/	-śby	4.A/	-śby	2a\	-śby	4.cc\	-śby
.	.	8B-/	.	.	.	8dd\	prʒi-
4.E-X/	prʒi-	2c/	prʒi-	4.g/	prʒi-	2ee-X\	-jąć
8F/	.	.	.	8a\	.	.	.
4.G\	-jąć	4.B-/	-jąć	4.b-\	-jąć	4.dd\	w u-
8A\	.	8c/L	.	8a\	.	8cc\	-ſʒy
4B-\	w u-	8d\	w u-	4g/	w u-	4b-/	ſwo-
.	.	8G/J	.	.	.	.	.
4G\	-ſʒy	2g\	-ſʒy	4dd\	-ſʒy	8cc\L	-ie
.	.	.	.	.	.	8b-/J	.
=5-	=5	=5-	=5	=5-	=5	=5-	=5
2d\	ſwo-	.	.	4.dd\	ſwo-	8a/L	Proś-
.	.	.	.	.	.	8g/J	.
.	.	4f\	ſwo-	.	.	4a/	-bá
.	.	.	.	8cc\	.	.	.
2G\	-ie:	2g\	.	2b-\	-ie	2g/	ʒá
4.B-\	Proś-	8f\L	-ie:	2b-\	Proś-	2dd\	ká-
.	.	8e\	.	.	.	.	.
.	.	8d\	.	.	.	.	.
8A\L	.	8c\J	.	.	.	.	.
8G\	-bá	2B-/	Proś-	4b-\	-bá	4dd\	-dʒ́i-
8F\J	.	.	.	.	.	.	.
!LO:SIC:s=2E-:v	!	!	!	!	!	!LO:SIC:s=2ee-:v	!
2Eny/	ʒá	.	.	8e-X/L	ʒá	2eeny\	.
.	.	.	.	8fny/J	.	.	.
=6-	=6	=6-	=6	=6-	=6	=6-	=6
.	.	8B-/L	-bá	8g\L	ká-	.	.
.	.	8c\	.	8a\J	.	.	.
4BB-/	ká-	8d\	ʒá	2b-\	-dʒ́i-	4dd\	.
.	.	8e\J	.	.	.	.	.
2F/	.	4.f\	ká-	.	.	2cc\	-dło,
.	.	.	.	4a\	.	.	.
!	!	!LO:SIC:s=8e-:v	!	!	!	!	!
.	.	8e\	-dʒ́i-	.	.	.	.
4BB-/	-dʒ́i-	4.d\	-dło,	2b-\	-dło,	2b-/	rąk
4.BB-/	-dło,	.	.	.	.	.	.
.	.	8c/	rąk	.	.	.	.
.	.	4B-/	.	2f/	rąk	2dd\	ʒło-
8C/L	.	.	.	.	.	.	.
8D/	rąk	8F/L	ʒło-	.	.	.	.
8E/J	.	8G/J	-ʒ̇e-	.	.	.	.
=7-	=7	=7-	=7	=7-	=7	=7-	=7
4F\	ʒło-	4A/	-nié,	4f/	ʒło-	4.cc\	-ʒ̇e-
4G\	-ʒ̇e-	4B-/	.	8d/L	-ʒ̇e-	.	.
.	.	.	.	8eny/J	.	8b-/	.
4F/	-nié,	4c\	.	4f/	.	4a/	-nié,
4D/	.	4d\	.	4f/	-nié,	2b-/	.
!!LO:PB:g=original
4G\	pá-	4B-/	pá-	8d/L	pá-	.	.
.	.	.	.	8e/J	.	.	.
4F\	.	4c/	.	4f/	.	4a/	pá-
4B-\	-nie,	4d\	-nie,	4f/	-nie,	2b-/	.
2G\	Niech-	4.B-/	.	4g/	.	.	.
=8-	=8	=8-	=8	=8-	=8	=8-	=8
!	!	!	!	!	!	!LO:TX:t=P:znak repetycji tylko w tym głosie:problem	!
.	.	.	.	8d/L	Niech-	2dd\	-nie,
.	.	8c/	.	8e/J	.	.	.
8D/L	-ći	2d\	Niech-	2f/	-ći	.	.
8E/J	ʒá	.	.	.	.	.	.
2F/	wie-	.	.	.	.	8a/L	Niech-
.	.	.	.	.	.	8b-/J	-ći
.	.	8A/L	-ći	8c/L	ʒá	2cc\	ʒá
.	.	8B-/J	.	8d/J	.	.	.
8C/L	-cʒor-	2c/	ʒá	2e-X/	.	.	.
8D/J	-ną	.	.	.	.	.	.
2E-X/	dʒ́iś	.	.	.	.	8g/L	wie-
.	.	.	.	.	.	8a/J	-cʒor-
.	.	8G/L	wie-	8B-/L	wie-	2b-/	-ną
.	.	8A/J	.	8c/	.	.	.
4BB-/	o-	4B-/	.	8d/	-cʒor-	.	.
.	.	.	.	8e-/J	.	.	.
=9-	=9	=9-	=9	=9-	=9	=9-	=9
8F\L	-bié-	4c/	-cʒor-	2f/	-ną	8a/L	dʒ́iś
8G\J	-dnią	.	.	.	.	8b-/J	.
2A\	ſtá-	4.c/	-ną	.	.	2cc\	o-
.	.	.	.	4f/	dʒ́iś	.	.
.	.	8d\L	.	.	.	.	.
4B-\	-nie.	8e\	dʒ́iś	8g/L	.	4b-/	-bié-
.	.	8d\J	.	8f/J	.	.	.
4F\	.	8c/L	o-	8f/L	o-	4a/	-dnią
.	.	8B-/	-bié-	8e-X/	-bié-	.	.
4G\	.	8A/	-nią	8d/	.	2g/	ſtá-
.	.	8G/J	.	8c/J	-dnią	.	.
2D/	.	2A/	ſtá-	4.d/	.	.	.
.	.	.	.	.	.	4f/	-nie.
.	.	.	.	8c/	ſtá-	.	.
=10-	=10	=10-	=10	=10-	=10	=10-	=10
*	*	*	*	*	*	*000/left	*
000G\	.	000G/	-nie.	000B-/	-nie.	000g/	.
==	==	==	==	==	==	==	==
*-	*-	*-	*-	*-	*-	*-	*-
!!!RDF**kern: l = terminal long
!!!system-decoration: s1,s2,s3,s4
!!!ENC: Marta Lawrence
!!!END: 2020-02-23
!!!URL-scan: https://polona.pl/item/melodiae-na-psalterz-polski,Nzk3MTM4ODQ/329 Scan on Polona
!!!IIIF: https://polona.pl/iiif/item/Nzk3MTM4ODQ/manifest.json
